src/activities/sport/1F94C.svg

<svg id="emoji" viewBox="0 0 72 72" xmlns="http://www.w3.org/2000/svg">
  <g id="grid">
    <path fill="#b3b3b3" d="M68,4V68H4V4H68m4-4H0V72H72V0Z"/>
    <path fill="none" stroke="#00a5ff" stroke-miterlimit="10" stroke-width="0.1" d="M12.923,10.9583H59.0769A1.9231,1.9231,0,0,1,61,12.8814V59.0352a1.9231,1.9231,0,0,1-1.9231,1.9231H12.9231A1.9231,1.9231,0,0,1,11,59.0352V12.8813A1.923,1.923,0,0,1,12.923,10.9583Z"/>
    <rect x="16" y="4" rx="2.2537" width="40" height="64" fill="none" stroke="#00a5ff" stroke-miterlimit="10" stroke-width="0.1"/>
    <rect x="16" y="4" rx="2.2537" width="40" height="64" transform="translate(72) rotate(90)" fill="none" stroke="#00a5ff" stroke-miterlimit="10" stroke-width="0.1"/>
    <circle cx="36" cy="36" r="29" fill="none" stroke="#00a5ff" stroke-miterlimit="10" stroke-width="0.1"/>
  </g>
  <g id="color">
    <rect x="30" y="17" width="16" height="3" fill="#d22f27"/>
    <path fill="#d22f27" d="M28,17h2a0,0,0,0,1,0,0v6a0,0,0,0,1,0,0H26a0,0,0,0,1,0,0V19A2,2,0,0,1,28,17Z"/>
    <rect x="24" y="25" width="25" height="3" fill="#d22f27"/>
    <path fill="#9b9b9a" d="M15.0235,45.3165l43.7822-.014A5.12,5.12,0,0,1,59,47.9306,6.665,6.665,0,0,1,56,51.83a12.842,12.842,0,0,1-4.46,2.1093c-6.4185,1.5916-14.5788.9581-22.54.815-1.5659-.0281-3.9957-.053-7,0A11.7664,11.7664,0,0,1,16,51.83c-1.9575-1.84-3.823-5.0163-2.8989-6.1266C13.515,45.2058,14.3976,45.2329,15.0235,45.3165Z"/>
    <path fill="#9b9b9a" d="M59,40H13a5.281,5.281,0,0,1-1-3.3854c.2236-2.9774,3.4077-5.7207,8-6.7707,4.2214-.4553,8.91-.7783,14-.8463a149.3349,149.3349,0,0,1,18,.8463c4.98,1.5891,8.1729,4.6559,8,7.6171A4.6653,4.6653,0,0,1,59,40Z"/>
    <path fill="#3f3f3f" d="M47.1538,28A14.0551,14.0551,0,0,0,41,29.42a13.3317,13.3317,0,0,1,0,24.16A14.0551,14.0551,0,0,0,47.1538,55a13.5043,13.5043,0,1,0,0-27Z"/>
    <path fill="#9b9b9a" d="M60,42.5a14.3243,14.3243,0,0,0-.2271-2.5H48.446a13.8981,13.8981,0,0,1,0,5H59.7729A14.3252,14.3252,0,0,0,60,42.5Z"/>
  </g>
  <g id="line">
    <rect x="26" y="17" width="4" height="7" fill="none" stroke="#000" stroke-linecap="round" stroke-linejoin="round" stroke-width="2"/>
    <rect x="12" y="29.0667" rx="12" width="48" height="25.6" fill="none" stroke="#000" stroke-linecap="round" stroke-linejoin="round" stroke-width="2"/>
    <rect x="12" y="40" rx="2.5" width="48" height="5" fill="none" stroke="#000" stroke-linecap="round" stroke-linejoin="round" stroke-width="2"/>
    <rect x="23" y="25" rx="2" width="26" height="4" fill="none" stroke="#000" stroke-linecap="round" stroke-linejoin="round" stroke-width="2"/>
    <path fill="none" stroke="#000" stroke-linecap="round" stroke-linejoin="round" stroke-width="2" d="M44.5,20H30V17H44.5a1.5,1.5,0,0,1,0,3Z"/>
  </g>
</svg>

<svg viewBox="0 0 72 72" xmlns="http://www.w3.org/2000/svg"><path fill="#b3b3b3" d="M68 4v64H4V4h64m4-4H0v72h72V0z"/><path fill="none" stroke="#00a5ff" stroke-miterlimit="10" stroke-width=".1" d="M12.923 10.958h46.154A1.923 1.923 0 0161 12.881v46.154a1.923 1.923 0 01-1.923 1.923H12.923A1.923 1.923 0 0111 59.035V12.881a1.923 1.923 0 011.923-1.923z"/><rect x="16" y="4" rx="2.254" width="40" height="64" fill="none" stroke="#00a5ff" stroke-miterlimit="10" stroke-width=".1"/><rect x="16" y="4" rx="2.254" width="40" height="64" transform="rotate(90 36 36)" fill="none" stroke="#00a5ff" stroke-miterlimit="10" stroke-width=".1"/><circle cx="36" cy="36" r="29" fill="none" stroke="#00a5ff" stroke-miterlimit="10" stroke-width=".1"/><g stroke-linecap="round" stroke-miterlimit="10" stroke-width="6" stroke="#fff" fill="none" stroke-linejoin="round"><path d="M26 17h4v7h-4z"/><rect x="12" y="29.067" rx="12" width="48" height="25.6"/><rect x="12" y="40" rx="2.5" width="48" height="5"/><rect x="23" y="25" rx="2" width="26" height="4"/><path d="M44.5 20H30v-3h14.5a1.5 1.5 0 010 3z"/></g><path fill="#d22f27" d="M30 17h16v3H30zm-2 0h2v6h-4v-4a2 2 0 012-2zm-4 8h25v3H24z"/><path fill="#9b9b9a" d="M15.024 45.316l43.782-.014A5.12 5.12 0 0159 47.931a6.665 6.665 0 01-3 3.899 12.842 12.842 0 01-4.46 2.11c-6.418 1.59-14.579.957-22.54.814a196.63 196.63 0 00-7 0 11.766 11.766 0 01-6-2.924c-1.958-1.84-3.823-5.016-2.899-6.127.414-.497 1.297-.47 1.922-.387zM59 40H13a5.281 5.281 0 01-1-3.385c.224-2.978 3.408-5.721 8-6.771 4.221-.455 8.91-.778 14-.846a149.335 149.335 0 0118 .846c4.98 1.589 8.173 4.656 8 7.617A4.665 4.665 0 0159 40z"/><path fill="#3f3f3f" d="M47.154 28A14.055 14.055 0 0041 29.42a13.332 13.332 0 010 24.16A14.055 14.055 0 0047.154 55a13.504 13.504 0 100-27z"/><path fill="#9b9b9a" d="M60 42.5a14.324 14.324 0 00-.227-2.5H48.446a13.898 13.898 0 010 5h11.327A14.325 14.325 0 0060 42.5z"/><g fill="none" stroke="#000" stroke-linecap="round" stroke-linejoin="round" stroke-width="2"><path d="M26 17h4v7h-4z"/><rect x="12" y="29.067" rx="12" width="48" height="25.6"/><rect x="12" y="40" rx="2.5" width="48" height="5"/><rect x="23" y="25" rx="2" width="26" height="4"/><path d="M44.5 20H30v-3h14.5a1.5 1.5 0 010 3z"/></g></svg>
